packages/icons/src/circle-check-small-fill.svg

<svg width="24" height="24" viewBox="0 0 24 24" fill="none" xmlns="http://www.w3.org/2000/svg">
<path fill-rule="evenodd" clip-rule="evenodd" d="M12 4C16.416 4 20 7.584 20 12C20 16.416 16.416 20 12 20C7.584 20 4 16.416 4 12C4 7.584 7.584 4 12 4ZM15.4343 9.03438L11.2 13.2687L9.3657 11.4344L8.23433 12.5658L11.2 15.5314L16.5657 10.1657L15.4343 9.03438Z" fill="black"/>
</svg>

<svg xmlns="http://www.w3.org/2000/svg" width="24" height="24" fill="none" viewBox="0 0 24 24">
  <path fill="#000" fill-rule="evenodd" d="M12 4c4.416 0 8 3.584 8 8s-3.584 8-8 8-8-3.584-8-8 3.584-8 8-8Zm3.434 5.034L11.2 13.27l-1.834-1.835-1.132 1.132L11.2 15.53l5.366-5.365-1.132-1.132Z" clip-rule="evenodd"/>
</svg>
